assets/images/html5.svg

<svg width="24" height="24" viewBox="0 0 24 24" fill="none" xmlns="http://www.w3.org/2000/svg">
<path d="M12 19.4133L18.1589 17.9067L18.9912 9.77333H8.03531L7.76292 7.06667H19.2636L19.5662 4.41333H4.4338L5.28121 12.4267H15.7074L15.3594 15.8667L12 16.6667L8.6406 15.8667L8.42875 13.6533H5.40227L5.84111 17.9067L12 19.4133ZM0 0H24L21.8361 21.6L12 24L2.16393 21.6L0 0Z" fill="#626262"/>
</svg>

<svg width="24" height="24" viewBox="0 0 24 24" fill="none" xmlns="http://www.w3.org/2000/svg"><path d="m12 19.413 6.159-1.506.832-8.134H8.035l-.272-2.706h11.5l.303-2.654H4.434l.847 8.014h10.426l-.348 3.44-3.359.8-3.36-.8-.211-2.214H5.402l.44 4.254L12 19.413ZM0 0h24l-2.164 21.6L12 24l-9.836-2.4L0 0Z" fill="#626262"/></svg>
